;START_OF_HEADER
;HEADER_VERSION:0.1
;FLAVOR:Griffin
;GENERATOR.NAME:Cura_SteamEngine
;GENERATOR.VERSION:2.5.0
;GENERATOR.BUILD_DATE:2017-04-19
;TARGET_MACHINE.NAME:Ultimaker 3
;EXTRUDER_TRAIN.0.INITIAL_TEMPERATURE:205
;EXTRUDER_TRAIN.0.MATERIAL.VOLUME_USED:6185
;EXTRUDER_TRAIN.0.MATERIAL.GUID:506c9f0d-e3aa-4bd4-b2d2-23e2425b1aa9
;EXTRUDER_TRAIN.0.NOZZLE.DIAMETER:0.4
;BUILD_PLATE.INITIAL_TEMPERATURE:60
;PRINT.TIME:6615
;PRINT.SIZE.MIN.X:9
;PRINT.SIZE.MIN.Y:6
;PRINT.SIZE.MIN.Z:0.27
;PRINT.SIZE.MAX.X:149.995
;PRINT.SIZE.MAX.Y:126.389
;PRINT.SIZE.MAX.Z:15.27
;END_OF_HEADER
;Generated with Cura_SteamEngine 2.5.0

T0
G92 E0

M109 S205
G0 F15000 X9 Y6 Z2
G280
G1 F1500 E-6.5
;LAYER_COUNT:151
;LAYER:0
M107
M204 S625
M205 X6
G0 F4285.7 X147.591 Y124.764 Z0.27
M204 S500
M205 X5
;TYPE:SKIRT
G1 F1500 E0
G1 F1200 X147.003 Y125.211 E0.01094
G1 X146.37 Y125.592 E0.02189
G1 X145.7 Y125.903 E0.03283
G1 X145 Y126.139 E0.04377
G1 X144.279 Y126.298 E0.05471
G1 X143.544 Y126.379 E0.06566
G1 X143.17 Y126.389 E0.0712
G1 X122.849 Y126.389 E0.37222
G1 X122.111 Y126.349 E0.38317
G1 X121.383 Y126.23 E0.3941
G1 X120.671 Y126.032 E0.40505
G1 X119.985 Y125.759 E0.41598
G1 X119.332 Y125.413 E0.42693
G1 X118.72 Y124.999 E0.43788
G1 X118.157 Y124.521 E0.44882
G1 X117.649 Y123.985 E0.45976
G1 X117.202 Y123.397 E0.4707
G1 X116.821 Y122.764 E0.48164
G1 X116.51 Y122.094 E0.49258
G1 X116.496 Y122.052 E0.49324
G1 X116.346 Y122.428 E0.49924
G1 X116 Y123.081 E0.51018
G1 X115.586 Y123.693 E0.52113
G1 X115.108 Y124.256 E0.53207
G1 X114.572 Y124.764 E0.54301
G1 X113.984 Y125.211 E0.55395
G1 X113.351 Y125.592 E0.56489
G1 X112.681 Y125.903 E0.57584
G1 X111.981 Y126.139 E0.58678
G1 X111.26 Y126.298 E0.59772
G1 X110.525 Y126.379 E0.60867
G1 X110.151 Y126.389 E0.61421
G1 X89.83 Y126.389 E0.91523
G1 X89.092 Y126.349 E0.92618
G1 X88.364 Y126.23 E0.93711
G1 X87.652 Y126.032 E0.94806
G1 X86.966 Y125.759 E0.95899
G1 X86.313 Y125.413 E0.96994
G1 X85.701 Y124.999 E0.98089
G1 X85.138 Y124.521 E0.99183
G1 X84.63 Y123.985 E1.00277
G1 X84.183 Y123.397 E1.01371
G1 X83.802 Y122.764 E1.02465
G1 X83.491 Y122.094 E1.03559
G1 X83.255 Y121.394 E1.04654
G1 X83.096 Y120.673 E1.05747
G1 X83.015 Y119.938 E1.06843
G1 X83.005 Y119.564 E1.07397
G1 X83.005 Y95.436 E1.43138
G1 X83.045 Y94.698 E1.44233
G1 X83.164 Y93.97 E1.45326
G1 X83.362 Y93.258 E1.46421
G1 X83.635 Y92.572 E1.47514
G1 X83.981 Y91.919 E1.48609
G1 X84.395 Y91.307 E1.49704
G1 X84.873 Y90.744 E1.50798
G1 X85.409 Y90.236 E1.51892
G1 X85.997 Y89.789 E1.52986
G1 X86.63 Y89.408 E1.5408
G1 X87.3 Y89.097 E1.55174
G1 X88 Y88.861 E1.56269
G1 X88.721 Y88.702 E1.57362
G1 X89.456 Y88.621 E1.58458
G1 X89.83 Y88.611 E1.59012
G1 X110.151 Y88.611 E1.89114
G1 X110.889 Y88.651 E1.90209
G1 X111.617 Y88.77 E1.91302
G1 X112.329 Y88.968 E1.92396
G1 X113.015 Y89.241 E1.9349
G1 X113.668 Y89.587 E1.94585
G1 X114.28 Y90.001 E1.95679
G1 X114.843 Y90.479 E1.96773
G1 X115.351 Y91.015 E1.97867
G1 X115.798 Y91.603 E1.98961
G1 X116.179 Y92.236 E2.00056
G1 X116.49 Y92.906 E2.0115
G1 X116.504 Y92.948 E2.01216
G1 X116.654 Y92.572 E2.01815
G1 X117 Y91.919 E2.0291
G1 X117.414 Y91.307 E2.04005
G1 X117.892 Y90.744 E2.05099
G1 X118.428 Y90.236 E2.06193
G1 X119.016 Y89.789 E2.07287
G1 X119.649 Y89.408 E2.08381
G1 X120.319 Y89.097 E2.09475
G1 X121.019 Y88.861 E2.1057
G1 X121.74 Y88.702 E2.11663
G1 X122.475 Y88.621 E2.12759
G1 X122.849 Y88.611 E2.13313
G1 X143.17 Y88.611 E2.43415
G1 X143.908 Y88.651 E2.4451
G1 X144.636 Y88.77 E2.45603
G1 X145.348 Y88.968 E2.46697
G1 X146.034 Y89.241 E2.47791
G1 X146.687 Y89.587 E2.48886
G1 X147.299 Y90.001 E2.4998
G1 X147.862 Y90.479 E2.51074
G1 X148.37 Y91.015 E2.52168
G1 X148.817 Y91.603 E2.53262
G1 X149.198 Y92.236 E2.54357
G1 X149.509 Y92.906 E2.55451
G1 X149.745 Y93.606 E2.56545
G1 X149.904 Y94.327 E2.57639
G1 X149.985 Y95.062 E2.58734
G1 X149.995 Y95.436 E2.59289
G1 X149.995 Y119.564 E2.9503
G1 X149.955 Y120.302 E2.96125
G1 X149.836 Y121.03 E2.97218
G1 X149.638 Y121.742 E2.98312
G1 X149.365 Y122.428 E2.99406
G1 X149.019 Y123.081 E3.00501
G1 X148.605 Y123.693 E3.01595
G1 X148.127 Y124.256 E3.02689
G1 X147.591 Y124.764 E3.03783
M204 S625
M205 X6
G0 F4285.7 X147.249 Y124.593
M204 S500
M205 X5
G1 F1200 X146.666 Y125.014 E3.04849
G1 X146.039 Y125.368 E3.05915
G1 X145.378 Y125.651 E3.0698
G1 X144.689 Y125.858 E3.08046
G1 X143.981 Y125.988 E3.09112
G1 X143.17 Y126.039 E3.10316
G1 X122.849 Y126.039 E3.40418
G1 X122.131 Y125.999 E3.41483
G1 X121.421 Y125.88 E3.4255
G1 X120.729 Y125.682 E3.43616
G1 X120.064 Y125.409 E3.44681
G1 X119.432 Y125.064 E3.45747
G1 X118.843 Y124.651 E3.46813
G1 X118.304 Y124.175 E3.47878
G1 X117.82 Y123.643 E3.48944
G1 X117.399 Y123.06 E3.50009
G1 X117.045 Y122.433 E3.51076
G1 X116.762 Y121.772 E3.52141
G1 X116.555 Y121.083 E3.53206
G1 X116.501 Y120.789 E3.53649
G1 X116.467 Y120.992 E3.53954
G1 X116.269 Y121.684 E3.5502
G1 X115.996 Y122.349 E3.56085
G1 X115.651 Y122.981 E3.57152
G1 X115.238 Y123.57 E3.58217
G1 X114.762 Y124.109 E3.59283
G1 X114.23 Y124.593 E3.60348
G1 X113.647 Y125.014 E3.61413
G1 X113.02 Y125.368 E3.6248
G1 X112.359 Y125.651 E3.63545
G1 X111.67 Y125.858 E3.64611
G1 X110.962 Y125.988 E3.65677
G1 X110.151 Y126.039 E3.66881
G1 X89.83 Y126.039 E3.96983
G1 X89.112 Y125.999 E3.98048
G1 X88.402 Y125.88 E3.99115
G1 X87.71 Y125.682 E4.00181
G1 X87.045 Y125.409 E4.01246
G1 X86.413 Y125.064 E4.02312
G1 X85.824 Y124.651 E4.03378
G1 X85.285 Y124.175 E4.04443
G1 X84.801 Y123.643 E4.05509
G1 X84.38 Y123.06 E4.06574
G1 X84.026 Y122.433 E4.0764
G1 X83.743 Y121.772 E4.08705
G1 X83.536 Y121.083 E4.09771
G1 X83.406 Y120.375 E4.10838
G1 X83.355 Y119.564 E4.12041
G1 X83.355 Y95.436 E4.47783
G1 X83.395 Y94.718 E4.48848
G1 X83.514 Y94.008 E4.49914
G1 X83.712 Y93.316 E4.50981
G1 X83.985 Y92.651 E4.52046
G1 X84.33 Y92.019 E4.53112
G1 X84.743 Y91.43 E4.54178
G1 X85.219 Y90.891 E4.55243
G1 X85.751 Y90.407 E4.56308
G1 X86.334 Y89.986 E4.57374
G1 X86.961 Y89.632 E4.5844
G1 X87.622 Y89.349 E4.59505
G1 X88.311 Y89.142 E4.60571
G1 X89.019 Y89.012 E4.61637
G1 X89.83 Y88.961 E4.62841
G1 X110.151 Y88.961 E4.92943
G1 X110.869 Y89.001 E4.94009
G1 X111.579 Y89.12 E4.95075
G1 X112.271 Y89.318 E4.96141
G1 X112.936 Y89.591 E4.97206
G1 X113.568 Y89.936 E4.98273
G1 X114.157 Y90.349 E4.99338
G1 X114.696 Y90.825 E5.00403
G1 X115.18 Y91.357 E5.01469
G1 X115.601 Y91.94 E5.02534
G1 X115.955 Y92.567 E5.03601
G1 X116.238 Y93.228 E5.04666
G1 X116.445 Y93.917 E5.05732
G1 X116.499 Y94.211 E5.06174
G1 X116.533 Y94.008 E5.06479
G1 X116.731 Y93.316 E5.07545
G1 X117.004 Y92.651 E5.0861
G1 X117.349 Y92.019 E5.09677
G1 X117.762 Y91.43 E5.10743
G1 X118.238 Y90.891 E5.11808
G1 X118.77 Y90.407 E5.12873
G1 X119.353 Y89.986 E5.13938
G1 X119.98 Y89.632 E5.15005
G1 X120.641 Y89.349 E5.1607
G1 X121.33 Y89.142 E5.17136
G1 X122.038 Y89.012 E5.18202
G1 X122.849 Y88.961 E5.19406
G1 X143.17 Y88.961 E5.49508
G1 X143.888 Y89.001 E5.50573
G1 X144.598 Y89.12 E5.5164
G1 X145.29 Y89.318 E5.52706
G1 X145.955 Y89.591 E5.53771
G1 X146.587 Y89.936 E5.54837
G1 X147.176 Y90.349 E5.55903
G1 X147.715 Y90.825 E5.56968
G1 X148.199 Y91.357 E5.58034
G1 X148.62 Y91.94 E5.59099
G1 X148.974 Y92.567 E5.60166
G1 X149.257 Y93.228 E5.61231
G1 X149.464 Y93.917 E5.62296
G1 X149.594 Y94.625 E5.63363
G1 X149.645 Y95.436 E5.64566
G1 X149.645 Y119.564 E6.00308
G1 X149.605 Y120.282 E6.01373
G1 X149.486 Y120.992 E6.0244
G1 X149.288 Y121.684 E6.03506
G1 X149.015 Y122.349 E6.04571
G1 X148.67 Y122.981 E6.05637
G1 X148.257 Y123.57 E6.06703
G1 X147.781 Y124.109 E6.07768
G1 X147.249 Y124.593 E6.08834
M204 S625
M205 X6
G0 F4285.7 X146.908 Y124.416
M204 S500
M205 X5
G1 F1200 X146.33 Y124.811 E6.09871
G1 X145.711 Y125.137 E6.10907
G1 X145.059 Y125.391 E6.11943
G1 X144.382 Y125.568 E6.1298
G1 X143.689 Y125.667 E6.14017
G1 X143.17 Y125.689 E6.14787
G1 X122.849 Y125.689 E6.44889
G1 X122.15 Y125.649 E6.45926
G1 X121.461 Y125.53 E6.46962
G1 X120.79 Y125.332 E6.47998
G1 X120.145 Y125.06 E6.49035
G1 X119.536 Y124.716 E6.50071
G1 X118.97 Y124.304 E6.51108
G1 X118.455 Y123.831 E6.52144
G1 X117.997 Y123.302 E6.5318
G1 X117.602 Y122.724 E6.54217
G1 X117.276 Y122.105 E6.55254
G1 X117.022 Y121.453 E6.5629
G1 X116.845 Y120.776 E6.57327
G1 X116.746 Y120.083 E6.58364
G1 X116.724 Y119.564 E6.59133
G1 X116.724 Y95.436 E6.94875
G1 X116.764 Y94.737 E6.95912
G1 X116.883 Y94.048 E6.96948
G1 X117.081 Y93.377 E6.97984
G1 X117.353 Y92.732 E6.99021
G1 X117.697 Y92.123 E7.00057
G1 X118.109 Y91.557 E7.01094
G1 X118.582 Y91.042 E7.0213
G1 X119.111 Y90.584 E7.03167
G1 X119.689 Y90.189 E7.04204
G1 X120.308 Y89.863 E7.0524
G1 X120.96 Y89.609 E7.06276
G1 X121.637 Y89.432 E7.07313
G1 X122.33 Y89.333 E7.0835
G1 X122.849 Y89.311 E7.09119
G1 X143.17 Y89.311 E7.39222
G1 X143.869 Y89.351 E7.40259
G1 X144.558 Y89.47 E7.41294
G1 X145.229 Y89.668 E7.42331
G1 X145.874 Y89.94 E7.43368
G1 X146.483 Y90.284 E7.44404
G1 X147.049 Y90.696 E7.45441
G1 X147.564 Y91.169 E7.46477
G1 X148.022 Y91.698 E7.47513
G1 X148.417 Y92.276 E7.4855
G1 X148.743 Y92.895 E7.49587
G1 X148.997 Y93.547 E7.50623
G1 X149.174 Y94.224 E7.5166
G1 X149.273 Y94.917 E7.52697
G1 X149.295 Y95.436 E7.53466
G1 X149.295 Y119.564 E7.89208
G1 X149.255 Y120.263 E7.90245
G1 X149.136 Y120.952 E7.91281
G1 X148.938 Y121.623 E7.92317
G1 X148.666 Y122.268 E7.93354
G1 X148.322 Y122.877 E7.9439
G1 X147.91 Y123.443 E7.95427
G1 X147.437 Y123.958 E7.96463
G1 X146.908 Y124.416 E7.97499
M204 S625
M205 X6
G0 F4285.7 X146.568 Y124.233
M204 S500
M205 X5
G1 F1200 X145.996 Y124.6 E7.98506
G1 X145.385 Y124.897 E7.99513
G1 X144.743 Y125.121 E8.0052
G1 X144.08 Y125.267 E8.01525
G1 X143.17 Y125.339 E8.02878
G1 X122.849 Y125.339 E8.3298
G1 X122.171 Y125.299 E8.33986
G1 X121.502 Y125.18 E8.34992
G1 X120.852 Y124.983 E8.35999
G1 X120.229 Y124.711 E8.37006
G1 X119.643 Y124.367 E8.38012
G1 X119.101 Y123.957 E8.39019
G1 X118.611 Y123.487 E8.40025
G1 X118.18 Y122.962 E8.41031
G1 X117.813 Y122.39 E8.42038
G1 X117.516 Y121.779 E8.43044
G1 X117.292 Y121.137 E8.44051
G1 X117.146 Y120.474 E8.45057
G1 X117.074 Y119.564 E8.46409
G1 X117.074 Y95.436 E8.82151
G1 X117.114 Y94.758 E8.83157
G1 X117.233 Y94.089 E8.84163
G1 X117.43 Y93.439 E8.85169
G1 X117.702 Y92.816 E8.86176
G1 X118.046 Y92.23 E8.87183
G1 X118.456 Y91.688 E8.8819
G1 X118.926 Y91.198 E8.89195
G1 X119.451 Y90.767 E8.90202
G1 X120.023 Y90.4 E8.91208
G1 X120.634 Y90.103 E8.92215
G1 X121.276 Y89.879 E8.93222
G1 X121.939 Y89.733 E8.94228
G1 X122.849 Y89.661 E8.9558
G1 X143.17 Y89.661 E9.25682
G1 X143.848 Y89.701 E9.26688
G1 X144.517 Y89.82 E9.27695
G1 X145.167 Y90.017 E9.28701
G1 X145.79 Y90.289 E9.29708
G1 X146.376 Y90.633 E9.30714
G1 X146.918 Y91.043 E9.31721
G1 X147.408 Y91.513 E9.32727
G1 X147.839 Y92.038 E9.33733
G1 X148.206 Y92.61 E9.3474
G1 X148.503 Y93.221 E9.35746
G1 X148.727 Y93.863 E9.36753
G1 X148.873 Y94.526 E9.37759
G1 X148.945 Y95.436 E9.39111
G1 X148.945 Y119.564 E9.74853
G1 X148.905 Y120.242 E9.75859
G1 X148.786 Y120.911 E9.76865
G1 X148.589 Y121.561 E9.77872
G1 X148.317 Y122.184 E9.78879
G1 X147.973 Y122.77 E9.79885
G1 X147.563 Y123.312 E9.80892
G1 X147.093 Y123.802 E9.81898
G1 X146.568 Y124.233 E9.82904
M204 S625
M205 X6
G0 F4285.7 X146.229 Y124.044
M204 S500
M205 X5
G1 F1200 X145.664 Y124.382 E9.83879
G1 X145.062 Y124.648 E9.84854
G1 X144.432 Y124.84 E9.8583
G1 X143.784 Y124.954 E9.86804
G1 X143.17 Y124.989 E9.87715
G1 X122.849 Y124.989 E10.17817
G1 X122.192 Y124.949 E10.18793
G1 X121.544 Y124.83 E10.19768
G1 X120.916 Y124.633 E10.20743
G1 X120.316 Y124.361 E10.21719
G1 X119.753 Y124.019 E10.22695
G1 X119.236 Y123.611 E10.23671
G1 X118.773 Y123.144 E10.24645
G1 X118.369 Y122.623 E10.25621
G1 X118.031 Y122.058 E10.26597
G1 X117.765 Y121.456 E10.27572
G1 X117.573 Y120.826 E10.28547
G1 X117.459 Y120.178 E10.29522
G1 X117.424 Y119.564 E10.30433
G1 X117.424 Y95.436 E10.66175
G1 X117.464 Y94.779 E10.6715
G1 X117.583 Y94.131 E10.68126
G1 X117.78 Y93.503 E10.691
G1 X118.052 Y92.903 E10.70076
G1 X118.394 Y92.34 E10.71052
G1 X118.802 Y91.823 E10.72028
G1 X119.269 Y91.36 E10.73002
G1 X119.79 Y90.956 E10.73979
G1 X120.355 Y90.618 E10.74954
G1 X120.957 Y90.352 E10.75929
G1 X121.587 Y90.16 E10.76904
G1 X122.235 Y90.046 E10.77879
G1 X122.849 Y90.011 E10.7879
G1 X143.17 Y90.011 E11.08892
G1 X143.827 Y90.051 E11.09867
G1 X144.475 Y90.17 E11.10843
G1 X145.103 Y90.367 E11.11818
G1 X145.703 Y90.639 E11.12794
G1 X146.266 Y90.981 E11.1377
G1 X146.783 Y91.389 E11.14745
G1 X147.246 Y91.856 E11.1572
G1 X147.65 Y92.377 E11.16696
G1 X147.988 Y92.942 E11.17671
G1 X148.254 Y93.544 E11.18646
G1 X148.446 Y94.174 E11.19622
G1 X148.56 Y94.822 E11.20597
G1 X148.595 Y95.436 E11.21508
G1 X148.595 Y119.564 E11.57249
G1 X148.555 Y120.221 E11.58224
G1 X148.436 Y120.869 E11.592
G1 X148.239 Y121.497 E11.60175
G1 X147.967 Y122.097 E11.61151
G1 X147.625 Y122.66 E11.62127
G1 X147.217 Y123.177 E11.63102
G1 X146.75 Y123.64 E11.64077
G1 X146.229 Y124.044 E11.65053
M204 S625
M205 X6
G0 F4285.7 X145.892 Y123.847
M204 S500
M205 X5
G1 F1200 X145.335 Y124.154 E11.65995
G1 X144.743 Y124.389 E11.66939
G1 X144.126 Y124.548 E11.67883
G1 X143.494 Y124.629 E11.68827
G1 X143.17 Y124.639 E11.69307
G1 X122.849 Y124.639 E11.99409
G1 X122.213 Y124.599 E12.00353
G1 X121.588 Y124.48 E12.01295
G1 X120.982 Y124.283 E12.02239
G1 X120.406 Y124.012 E12.03182
G1 X119.868 Y123.671 E12.04126
G1 X119.377 Y123.265 E12.0507
G1 X118.941 Y122.801 E12.06013
G1 X118.566 Y122.286 E12.06956
G1 X118.259 Y121.729 E12.07899
G1 X118.024 Y121.137 E12.08842
G1 X117.865 Y120.52 E12.09786
G1 X117.784 Y119.888 E12.1073
G1 X117.774 Y119.564 E12.1121
G1 X117.774 Y95.436 E12.46952
G1 X117.814 Y94.8 E12.47896
G1 X117.933 Y94.175 E12.48838
G1 X118.13 Y93.569 E12.49782
G1 X118.401 Y92.993 E12.50725
G1 X118.742 Y92.455 E12.51668
G1 X119.148 Y91.964 E12.52612
G1 X119.612 Y91.528 E12.53555
G1 X120.127 Y91.153 E12.54499
G1 X120.684 Y90.846 E12.55441
G1 X121.276 Y90.611 E12.56385
G1 X121.893 Y90.452 E12.57329
G1 X122.525 Y90.371 E12.58272
G1 X122.849 Y90.361 E12.58753
G1 X143.17 Y90.361 E12.88855
G1 X143.806 Y90.401 E12.89799
G1 X144.431 Y90.52 E12.90741
G1 X145.037 Y90.717 E12.91685
G1 X145.613 Y90.988 E12.92628
G1 X146.151 Y91.329 E12.93572
G1 X146.642 Y91.735 E12.94515
G1 X147.078 Y92.199 E12.95459
G1 X147.453 Y92.714 E12.96402
G1 X147.76 Y93.271 E12.97344
G1 X147.995 Y93.863 E12.98288
G1 X148.154 Y94.48 E12.99232
G1 X148.235 Y95.112 E13.00176
G1 X148.245 Y95.436 E13.00656
G1 X148.245 Y119.564 E13.36397
G1 X148.205 Y120.2 E13.37341
G1 X148.086 Y120.825 E13.38284
G1 X147.889 Y121.431 E13.39228
G1 X147.618 Y122.007 E13.40171
G1 X147.277 Y122.545 E13.41114
G1 X146.871 Y123.036 E13.42058
G1 X146.407 Y123.472 E13.43001
G1 X145.892 Y123.847 E13.43945
M204 S625
M205 X6
G0 F4285.7 X145.557 Y123.642
M204 S500
M205 X5
G1 F1200 X145.008 Y123.917 E13.44855
G1 X144.427 Y124.119 E13.45766
G1 X143.826 Y124.243 E13.46675
G1 X143.17 Y124.289 E13.47649
G1 X122.849 Y124.289 E13.77751
G1 X122.236 Y124.249 E13.78661
G1 X121.633 Y124.13 E13.79571
G1 X121.051 Y123.933 E13.80482
G1 X120.499 Y123.663 E13.81392
G1 X119.987 Y123.323 E13.82302
G1 X119.523 Y122.92 E13.83213
G1 X119.116 Y122.46 E13.84123
G1 X118.771 Y121.951 E13.85033
G1 X118.496 Y121.402 E13.85943
G1 X118.294 Y120.821 E13.86854
G1 X118.17 Y120.22 E13.87763
G1 X118.124 Y119.564 E13.88737
G1 X118.124 Y95.436 E14.24479
G1 X118.164 Y94.823 E14.25389
G1 X118.283 Y94.22 E14.26299
G1 X118.48 Y93.638 E14.2721
G1 X118.75 Y93.086 E14.2812
G1 X119.09 Y92.574 E14.2903
G1 X119.493 Y92.11 E14.29941
G1 X119.953 Y91.703 E14.30851
G1 X120.462 Y91.358 E14.31761
G1 X121.011 Y91.083 E14.32671
G1 X121.592 Y90.881 E14.33582
G1 X122.193 Y90.757 E14.34491
G1 X122.849 Y90.711 E14.35465
G1 X143.17 Y90.711 E14.65568
G1 X143.783 Y90.751 E14.66477
G1 X144.386 Y90.87 E14.67388
G1 X144.968 Y91.067 E14.68298
G1 X145.52 Y91.337 E14.69208
G1 X146.032 Y91.677 E14.70119
G1 X146.496 Y92.08 E14.71029
G1 X146.903 Y92.54 E14.71939
G1 X147.248 Y93.049 E14.7285
G1 X147.523 Y93.598 E14.7376
G1 X147.725 Y94.179 E14.74671
G1 X147.849 Y94.78 E14.7558
G1 X147.895 Y95.436 E14.76554
G1 X147.895 Y119.564 E15.12295
G1 X147.855 Y120.177 E15.13205
G1 X147.736 Y120.78 E15.14116
G1 X147.539 Y121.362 E15.15026
G1 X147.269 Y121.914 E15.15936
