;START_OF_HEADER
;HEADER_VERSION:0.1
;FLAVOR:Griffin
;GENERATOR.NAME:Cura_SteamEngine
;GENERATOR.VERSION:2.5.0
;GENERATOR.BUILD_DATE:2017-04-19
;TARGET_MACHINE.NAME:Ultimaker 3
;EXTRUDER_TRAIN.0.INITIAL_TEMPERATURE:205
;EXTRUDER_TRAIN.0.MATERIAL.VOLUME_USED:7551
;EXTRUDER_TRAIN.0.MATERIAL.GUID:506c9f0d-e3aa-4bd4-b2d2-23e2425b1aa9
;EXTRUDER_TRAIN.0.NOZZLE.DIAMETER:0.4
;BUILD_PLATE.INITIAL_TEMPERATURE:60
;PRINT.TIME:7986
;PRINT.SIZE.MIN.X:9
;PRINT.SIZE.MIN.Y:6
;PRINT.SIZE.MIN.Z:0.27
;PRINT.SIZE.MAX.X:152.781
;PRINT.SIZE.MAX.Y:143.814
;PRINT.SIZE.MAX.Z:9.37
;END_OF_HEADER
;Generated with Cura_SteamEngine 2.5.0

T0
G92 E0

M109 S205
G0 F15000 X9 Y6 Z2
G280
G1 F1500 E-6.5
;LAYER_COUNT:92
;LAYER:0
M107
M204 S625
M205 X6
G0 F4285.7 X143.94 Y131.288 Z0.27
M204 S500
M205 X5
;TYPE:SKIRT
G1 F1500 E0
G1 F1200 X141.743 Y133.609 E0.04734
G1 X141.204 Y134.119 E0.05833
G1 X138.771 Y136.185 E0.10562
G1 X138.184 Y136.632 E0.11655
G1 X135.54 Y138.425 E0.16387
G1 X134.906 Y138.806 E0.17483
G1 X132.084 Y140.302 E0.22214
G1 X131.415 Y140.612 E0.23306
G1 X128.446 Y141.796 E0.28041
G1 X127.744 Y142.032 E0.29138
G1 X124.668 Y142.886 E0.33867
G1 X123.946 Y143.045 E0.34962
G1 X120.792 Y143.562 E0.39697
G1 X120.056 Y143.642 E0.40793
G1 X116.868 Y143.814 E0.45523
G1 X116.132 Y143.814 E0.46613
G1 X112.944 Y143.642 E0.51342
G1 X112.208 Y143.562 E0.52439
G1 X109.054 Y143.045 E0.57173
G1 X108.33 Y142.886 E0.58272
G1 X105.254 Y142.031 E0.63001
G1 X104.556 Y141.795 E0.64092
G1 X101.587 Y140.612 E0.68827
G1 X100.916 Y140.302 E0.69922
G1 X98.096 Y138.807 E0.7465
G1 X97.463 Y138.426 E0.75744
G1 X94.817 Y136.632 E0.8048
G1 X94.229 Y136.185 E0.81574
G1 X91.796 Y134.119 E0.86302
G1 X91.257 Y133.609 E0.87401
G1 X89.06 Y131.288 E0.92135
G1 X88.585 Y130.729 E0.93222
G1 X86.651 Y128.187 E0.97953
G1 X86.235 Y127.573 E0.99052
G1 X84.588 Y124.836 E1.03784
G1 X84.242 Y124.182 E1.0488
G1 X82.901 Y121.283 E1.09612
G1 X82.626 Y120.595 E1.10709
G1 X81.608 Y117.57 E1.15437
G1 X81.412 Y116.862 E1.16525
G1 X80.724 Y113.74 E1.21261
G1 X80.604 Y113.009 E1.22358
G1 X80.259 Y109.836 E1.27086
G1 X80.219 Y109.098 E1.28181
G1 X80.219 Y105.904 E1.32913
G1 X80.259 Y105.167 E1.34006
G1 X80.604 Y101.992 E1.38737
G1 X80.724 Y101.26 E1.39836
G1 X81.412 Y98.138 E1.44571
G1 X81.608 Y97.43 E1.4566
G1 X82.626 Y94.405 E1.50387
G1 X82.901 Y93.717 E1.51485
G1 X84.242 Y90.818 E1.56217
G1 X84.588 Y90.164 E1.57313
G1 X86.235 Y87.427 E1.62044
G1 X86.651 Y86.813 E1.63143
G1 X88.585 Y84.271 E1.67875
G1 X89.06 Y83.712 E1.68961
G1 X91.257 Y81.391 E1.73695
G1 X91.796 Y80.881 E1.74795
G1 X94.229 Y78.815 E1.79523
G1 X94.817 Y78.368 E1.80617
G1 X97.463 Y76.574 E1.85353
G1 X98.096 Y76.193 E1.86447
G1 X100.916 Y74.698 E1.91175
G1 X101.585 Y74.388 E1.92267
G1 X104.554 Y73.204 E1.97002
G1 X105.256 Y72.968 E1.98099
G1 X108.332 Y72.114 E2.02828
G1 X109.054 Y71.955 E2.03923
G1 X112.208 Y71.438 E2.08658
G1 X112.944 Y71.358 E2.09754
G1 X116.132 Y71.186 E2.14484
G1 X116.868 Y71.186 E2.15574
G1 X120.056 Y71.358 E2.20303
G1 X120.792 Y71.438 E2.214
G1 X123.946 Y71.955 E2.26135
G1 X124.67 Y72.114 E2.27233
G1 X127.746 Y72.969 E2.31962
G1 X128.444 Y73.205 E2.33053
G1 X131.413 Y74.388 E2.37788
G1 X132.084 Y74.698 E2.38883
G1 X134.904 Y76.193 E2.43611
G1 X135.537 Y76.574 E2.44705
G1 X138.183 Y78.368 E2.49441
G1 X138.771 Y78.815 E2.50535
G1 X141.204 Y80.881 E2.55263
G1 X141.743 Y81.391 E2.56362
G1 X143.94 Y83.712 E2.61096
G1 X144.415 Y84.271 E2.62183
G1 X146.349 Y86.813 E2.66915
G1 X146.765 Y87.427 E2.68013
G1 X148.411 Y90.162 E2.72742
G1 X148.757 Y90.816 E2.73838
G1 X150.098 Y93.715 E2.78569
G1 X150.372 Y94.403 E2.79666
G1 X151.391 Y97.43 E2.84398
G1 X151.588 Y98.137 E2.85485
G1 X152.276 Y101.257 E2.90218
G1 X152.396 Y101.99 E2.91318
G1 X152.741 Y105.165 E2.96049
G1 X152.781 Y105.902 E2.97142
G1 X152.781 Y109.096 E3.01874
G1 X152.741 Y109.833 E3.02967
G1 X152.396 Y113.008 E3.07698
G1 X152.276 Y113.74 E3.08797
G1 X151.588 Y116.862 E3.13532
G1 X151.392 Y117.57 E3.14621
G1 X150.374 Y120.595 E3.19348
G1 X150.099 Y121.283 E3.20446
G1 X148.758 Y124.182 E3.25178
G1 X148.412 Y124.836 E3.26274
G1 X146.765 Y127.573 E3.31006
G1 X146.349 Y128.187 E3.32104
G1 X144.415 Y130.729 E3.36836
G1 X143.94 Y131.288 E3.37922
M204 S625
M205 X6
G0 F4285.7 X143.685 Y131.047
M204 S500
M205 X5
G1 F1200 X141.488 Y133.368 E3.42656
G1 X140.977 Y133.853 E3.437
G1 X138.544 Y135.919 E3.48428
G1 X137.987 Y136.342 E3.49464
G1 X135.343 Y138.135 E3.54197
G1 X134.742 Y138.497 E3.55236
G1 X131.92 Y139.993 E3.59967
G1 X131.285 Y140.286 E3.61003
G1 X128.316 Y141.47 E3.65738
G1 X127.65 Y141.695 E3.6678
G1 X124.574 Y142.549 E3.71508
G1 X123.889 Y142.7 E3.72548
G1 X120.735 Y143.217 E3.77282
G1 X120.037 Y143.293 E3.78322
G1 X116.849 Y143.465 E3.83051
G1 X116.151 Y143.465 E3.84085
G1 X112.963 Y143.293 E3.88815
G1 X112.265 Y143.217 E3.89855
G1 X109.111 Y142.7 E3.94589
G1 X108.424 Y142.548 E3.95632
G1 X105.348 Y141.693 E4.00361
G1 X104.685 Y141.47 E4.01397
G1 X101.716 Y140.287 E4.06131
G1 X101.08 Y139.993 E4.07169
G1 X98.26 Y138.498 E4.11897
G1 X97.659 Y138.136 E4.12937
G1 X95.013 Y136.342 E4.17672
G1 X94.456 Y135.919 E4.18708
G1 X92.023 Y133.853 E4.23437
G1 X91.512 Y133.368 E4.2448
G1 X89.315 Y131.047 E4.29214
G1 X88.864 Y130.517 E4.30245
G1 X86.93 Y127.975 E4.34977
G1 X86.535 Y127.393 E4.36019
G1 X84.888 Y124.656 E4.40751
G1 X84.559 Y124.035 E4.41792
G1 X83.218 Y121.136 E4.46523
G1 X82.958 Y120.483 E4.47564
G1 X81.94 Y117.458 E4.52292
G1 X81.754 Y116.786 E4.53325
G1 X81.066 Y113.664 E4.58061
G1 X80.952 Y112.971 E4.59101
G1 X80.607 Y109.798 E4.63829
G1 X80.569 Y109.098 E4.64868
G1 X80.569 Y105.904 E4.69599
G1 X80.607 Y105.205 E4.70636
G1 X80.952 Y102.03 E4.75367
G1 X81.066 Y101.336 E4.76409
G1 X81.754 Y98.214 E4.81144
G1 X81.94 Y97.542 E4.82177
G1 X82.958 Y94.517 E4.86905
G1 X83.218 Y93.864 E4.87946
G1 X84.559 Y90.965 E4.92678
G1 X84.888 Y90.344 E4.93719
G1 X86.535 Y87.607 E4.98451
G1 X86.93 Y87.025 E4.99493
G1 X88.864 Y84.483 E5.04224
G1 X89.315 Y83.953 E5.05255
G1 X91.512 Y81.632 E5.09989
G1 X92.023 Y81.147 E5.11033
G1 X94.456 Y79.081 E5.15761
G1 X95.013 Y78.658 E5.16797
G1 X97.659 Y76.864 E5.21533
G1 X98.26 Y76.502 E5.22572
G1 X101.08 Y75.007 E5.273
G1 X101.715 Y74.714 E5.28336
G1 X104.684 Y73.53 E5.33071
G1 X105.35 Y73.305 E5.34112
G1 X108.426 Y72.451 E5.38841
G1 X109.111 Y72.3 E5.3988
G1 X112.265 Y71.783 E5.44615
G1 X112.963 Y71.707 E5.45655
G1 X116.151 Y71.535 E5.50384
G1 X116.849 Y71.535 E5.51418
G1 X120.037 Y71.707 E5.56148
G1 X120.735 Y71.783 E5.57188
G1 X123.889 Y72.3 E5.61922
G1 X124.576 Y72.452 E5.62964
G1 X127.652 Y73.307 E5.67694
G1 X128.315 Y73.53 E5.6873
G1 X131.284 Y74.713 E5.73464
G1 X131.92 Y75.007 E5.74502
G1 X134.74 Y76.502 E5.7923
G1 X135.341 Y76.864 E5.8027
G1 X137.987 Y78.658 E5.85005
G1 X138.544 Y79.081 E5.86041
G1 X140.977 Y81.147 E5.90769
G1 X141.488 Y81.632 E5.91813
G1 X143.685 Y83.953 E5.96547
G1 X144.136 Y84.483 E5.97578
G1 X146.07 Y87.025 E6.0231
G1 X146.465 Y87.607 E6.03352
G1 X148.111 Y90.342 E6.0808
G1 X148.44 Y90.963 E6.09121
G1 X149.781 Y93.862 E6.13853
G1 X150.041 Y94.514 E6.14892
G1 X151.06 Y97.541 E6.19624
G1 X151.246 Y98.213 E6.20657
G1 X151.934 Y101.333 E6.25389
G1 X152.048 Y102.028 E6.26433
G1 X152.393 Y105.203 E6.31164
G1 X152.431 Y105.902 E6.32201
G1 X152.431 Y109.096 E6.36932
G1 X152.393 Y109.795 E6.37969
G1 X152.048 Y112.97 E6.427
G1 X151.934 Y113.664 E6.43742
G1 X151.246 Y116.786 E6.48477
G1 X151.06 Y117.458 E6.4951
G1 X150.042 Y120.483 E6.54238
G1 X149.782 Y121.136 E6.55279
G1 X148.441 Y124.035 E6.60011
G1 X148.112 Y124.656 E6.61052
G1 X146.465 Y127.393 E6.65784
G1 X146.07 Y127.975 E6.66826
G1 X144.136 Y130.517 E6.71557
G1 X143.685 Y131.047 E6.72588
M204 S625
M205 X6
G0 F4285.7 X143.431 Y130.807
M204 S500
M205 X5
G1 F1200 X141.234 Y133.128 E6.77322
G1 X140.751 Y133.586 E6.78308
G1 X138.318 Y135.652 E6.83037
G1 X137.791 Y136.052 E6.84017
G1 X135.147 Y137.845 E6.88749
G1 X134.578 Y138.188 E6.89733
G1 X131.756 Y139.684 E6.94464
G1 X131.156 Y139.961 E6.95443
G1 X128.187 Y141.145 E7.00178
G1 X127.557 Y141.358 E7.01163
G1 X124.481 Y142.212 E7.05892
G1 X123.833 Y142.354 E7.06875
G1 X120.679 Y142.871 E7.1161
G1 X120.018 Y142.943 E7.12594
G1 X116.83 Y143.115 E7.17324
G1 X116.17 Y143.115 E7.18301
G1 X112.982 Y142.943 E7.23031
G1 X112.321 Y142.871 E7.24016
G1 X109.167 Y142.354 E7.2875
G1 X108.518 Y142.211 E7.29735
G1 X105.442 Y141.356 E7.34464
G1 X104.815 Y141.145 E7.35444
G1 X101.846 Y139.962 E7.40178
G1 X101.244 Y139.684 E7.41161
G1 X98.424 Y138.189 E7.45889
G1 X97.856 Y137.847 E7.46871
G1 X95.21 Y136.053 E7.51606
G1 X94.682 Y135.652 E7.52589
G1 X92.249 Y133.586 E7.57317
G1 X91.766 Y133.128 E7.58303
G1 X89.569 Y130.807 E7.63037
G1 X89.142 Y130.305 E7.64013
G1 X87.208 Y127.763 E7.68745
G1 X86.835 Y127.212 E7.6973
G1 X85.188 Y124.475 E7.74462
G1 X84.877 Y123.888 E7.75446
G1 X83.536 Y120.989 E7.80178
G1 X83.29 Y120.372 E7.81162
G1 X82.272 Y117.347 E7.8589
G1 X82.096 Y116.711 E7.86867
G1 X81.408 Y113.589 E7.91603
G1 X81.3 Y112.933 E7.92588
G1 X80.955 Y109.76 E7.97316
G1 X80.919 Y109.098 E7.98298
G1 X80.919 Y105.904 E8.03029
G1 X80.955 Y105.242 E8.04011
G1 X81.3 Y102.067 E8.08742
G1 X81.408 Y101.411 E8.09727
G1 X82.096 Y98.289 E8.14463
G1 X82.272 Y97.653 E8.1544
G1 X83.29 Y94.628 E8.20168
G1 X83.536 Y94.011 E8.21152
G1 X84.877 Y91.112 E8.25884
G1 X85.188 Y90.525 E8.26868
G1 X86.835 Y87.788 E8.316
G1 X87.208 Y87.237 E8.32585
G1 X89.142 Y84.695 E8.37317
G1 X89.569 Y84.193 E8.38293
G1 X91.766 Y81.872 E8.43027
G1 X92.249 Y81.414 E8.44013
G1 X94.682 Y79.348 E8.48741
G1 X95.21 Y78.947 E8.49724
G1 X97.856 Y77.153 E8.54459
G1 X98.424 Y76.811 E8.55441
G1 X101.244 Y75.316 E8.60169
G1 X101.844 Y75.039 E8.61148
G1 X104.813 Y73.855 E8.65883
G1 X105.443 Y73.642 E8.66868
G1 X108.519 Y72.788 E8.71597
G1 X109.167 Y72.646 E8.7258
G1 X112.321 Y72.129 E8.77314
G1 X112.982 Y72.057 E8.78299
G1 X116.17 Y71.885 E8.83029
G1 X116.83 Y71.885 E8.84006
G1 X120.018 Y72.057 E8.88736
G1 X120.679 Y72.129 E8.89721
G1 X123.833 Y72.646 E8.94455
G1 X124.482 Y72.789 E8.9544
G1 X127.558 Y73.644 E9.00169
G1 X128.185 Y73.855 E9.01149
G1 X131.154 Y75.038 E9.05883
G1 X131.756 Y75.316 E9.06865
G1 X134.576 Y76.811 E9.11594
G1 X135.144 Y77.153 E9.12576
G1 X137.79 Y78.947 E9.17311
G1 X138.318 Y79.348 E9.18293
G1 X140.751 Y81.414 E9.23022
G1 X141.234 Y81.872 E9.24008
G1 X143.431 Y84.193 E9.28742
G1 X143.858 Y84.695 E9.29718
G1 X145.792 Y87.237 E9.3445
G1 X146.165 Y87.788 E9.35435
G1 X147.811 Y90.523 E9.40164
G1 X148.122 Y91.11 E9.41148
G1 X149.463 Y94.009 E9.45879
G1 X149.709 Y94.626 E9.46863
G1 X150.728 Y97.653 E9.51595
G1 X150.904 Y98.288 E9.52571
G1 X151.592 Y101.408 E9.57303
G1 X151.7 Y102.065 E9.5829
G1 X152.045 Y105.24 E9.63021
G1 X152.081 Y105.902 E9.64003
G1 X152.081 Y109.096 E9.68734
G1 X152.045 Y109.758 E9.69716
G1 X151.7 Y112.933 E9.74447
G1 X151.592 Y113.589 E9.75432
G1 X150.904 Y116.711 E9.80168
G1 X150.728 Y117.347 E9.81145
G1 X149.71 Y120.372 E9.85873
G1 X149.464 Y120.989 E9.86857
G1 X148.123 Y123.888 E9.91589
G1 X147.812 Y124.475 E9.92573
G1 X146.165 Y127.212 E9.97305
G1 X145.792 Y127.763 E9.9829
G1 X143.858 Y130.305 E10.03022
G1 X143.431 Y130.807 E10.03998
M204 S625
M205 X6
G0 F4285.7 X143.177 Y130.566
M204 S500
M205 X5
G1 F1200 X140.98 Y132.887 E10.08732
G1 X140.524 Y133.319 E10.09663
G1 X138.091 Y135.385 E10.14391
G1 X137.594 Y135.763 E10.15316
G1 X134.95 Y137.556 E10.20048
G1 X134.414 Y137.878 E10.20974
G1 X131.592 Y139.374 E10.25706
G1 X131.026 Y139.636 E10.2663
G1 X128.057 Y140.82 E10.31365
G1 X127.463 Y141.021 E10.32293
G1 X124.387 Y141.875 E10.37022
G1 X123.776 Y142.009 E10.37949
G1 X120.622 Y142.526 E10.42683
G1 X119.999 Y142.594 E10.43612
G1 X116.811 Y142.766 E10.48341
G1 X116.189 Y142.766 E10.49263
G1 X113.001 Y142.594 E10.53992
G1 X112.378 Y142.526 E10.5492
G1 X109.224 Y142.009 E10.59655
G1 X108.611 Y141.874 E10.60585
G1 X105.535 Y141.019 E10.65314
G1 X104.944 Y140.82 E10.66238
G1 X101.975 Y139.637 E10.70972
G1 X101.408 Y139.374 E10.71898
G1 X98.588 Y137.879 E10.76626
G1 X98.052 Y137.557 E10.77552
G1 X95.406 Y135.763 E10.82288
G1 X94.909 Y135.385 E10.83213
G1 X92.476 Y133.319 E10.87941
G1 X92.02 Y132.887 E10.88871
G1 X89.823 Y130.566 E10.93606
G1 X89.421 Y130.093 E10.94525
G1 X87.487 Y127.551 E10.99257
G1 X87.135 Y127.032 E11.00186
G1 X85.488 Y124.295 E11.04917
G1 X85.195 Y123.742 E11.05844
G1 X83.854 Y120.843 E11.10576
G1 X83.622 Y120.26 E11.11505
G1 X82.604 Y117.235 E11.16233
G1 X82.437 Y116.636 E11.17155
G1 X81.749 Y113.514 E11.2189
G1 X81.648 Y112.895 E11.22819
G1 X81.303 Y109.722 E11.27547
G1 X81.269 Y109.098 E11.28473
G1 X81.269 Y105.904 E11.33204
G1 X81.303 Y105.28 E11.3413
G1 X81.648 Y102.105 E11.38861
G1 X81.749 Y101.486 E11.3979
G1 X82.437 Y98.364 E11.44526
G1 X82.604 Y97.765 E11.45447
G1 X83.622 Y94.74 E11.50175
G1 X83.854 Y94.157 E11.51104
G1 X85.195 Y91.258 E11.55836
G1 X85.488 Y90.705 E11.56763
G1 X87.135 Y87.968 E11.61495
G1 X87.487 Y87.449 E11.62424
G1 X89.421 Y84.907 E11.67155
G1 X89.823 Y84.434 E11.68075
G1 X92.02 Y82.113 E11.72809
G1 X92.476 Y81.681 E11.7374
G1 X94.909 Y79.615 E11.78468
G1 X95.406 Y79.237 E11.79393
G1 X98.052 Y77.443 E11.84128
G1 X98.588 Y77.121 E11.85055
G1 X101.408 Y75.626 E11.89783
G1 X101.974 Y75.364 E11.90707
G1 X104.943 Y74.18 E11.95441
G1 X105.537 Y73.979 E11.9637
G1 X108.613 Y73.125 E12.01099
G1 X109.224 Y72.991 E12.02026
G1 X112.378 Y72.474 E12.0676
G1 X113.001 Y72.406 E12.07689
G1 X116.189 Y72.234 E12.12418
G1 X116.811 Y72.234 E12.13339
G1 X119.999 Y72.406 E12.18069
G1 X120.622 Y72.474 E12.18997
G1 X123.776 Y72.991 E12.23732
G1 X124.389 Y73.126 E12.24661
G1 X127.465 Y73.981 E12.29391
G1 X128.056 Y74.18 E12.30315
G1 X131.025 Y75.363 E12.35049
G1 X131.592 Y75.626 E12.35975
G1 X134.412 Y77.121 E12.40703
G1 X134.948 Y77.443 E12.41629
G1 X137.594 Y79.237 E12.46365
G1 X138.091 Y79.615 E12.4729
G1 X140.524 Y81.681 E12.52018
G1 X140.98 Y82.113 E12.52948
G1 X143.177 Y84.434 E12.57682
G1 X143.579 Y84.907 E12.58602
G1 X145.513 Y87.449 E12.63333
G1 X145.865 Y87.968 E12.64262
G1 X147.511 Y90.703 E12.68991
G1 X147.804 Y91.256 E12.69918
G1 X149.145 Y94.155 E12.7465
G1 X149.377 Y94.738 E12.75579
G1 X150.396 Y97.765 E12.8031
G1 X150.563 Y98.363 E12.8123
G1 X151.251 Y101.483 E12.85963
G1 X151.352 Y102.103 E12.86893
G1 X151.697 Y105.278 E12.91624
G1 X151.731 Y105.902 E12.9255
G1 X151.731 Y109.096 E12.97281
G1 X151.697 Y109.72 E12.98207
G1 X151.352 Y112.895 E13.02938
G1 X151.251 Y113.514 E13.03867
G1 X150.563 Y116.636 E13.08603
G1 X150.396 Y117.235 E13.09524
G1 X149.378 Y120.26 E13.14252
G1 X149.146 Y120.843 E13.15181
G1 X147.805 Y123.742 E13.19913
G1 X147.512 Y124.295 E13.2084
G1 X145.865 Y127.032 E13.25572
G1 X145.513 Y127.551 E13.26501
G1 X143.579 Y130.093 E13.31232
G1 X143.177 Y130.566 E13.32152
M204 S625
M205 X6
G0 F4285.7 X142.923 Y130.325
M204 S500
M205 X5
G1 F1200 X140.726 Y132.646 E13.36886
G1 X140.297 Y133.052 E13.37761
G1 X137.864 Y135.118 E13.42489
G1 X137.398 Y135.473 E13.43357
G1 X134.754 Y137.266 E13.48089
G1 X134.25 Y137.569 E13.4896
G1 X131.428 Y139.065 E13.53692
G1 X130.897 Y139.311 E13.54559
G1 X127.928 Y140.495 E13.59294
G1 X127.369 Y140.683 E13.60167
G1 X124.293 Y141.537 E13.64896
G1 X123.72 Y141.664 E13.65766
G1 X120.566 Y142.181 E13.705
G1 X119.98 Y142.244 E13.71373
G1 X116.792 Y142.416 E13.76102
G1 X116.208 Y142.416 E13.76968
G1 X113.02 Y142.244 E13.81697
G1 X112.434 Y142.181 E13.8257
G1 X109.28 Y141.664 E13.87304
G1 X108.705 Y141.537 E13.88177
G1 X105.629 Y140.682 E13.92906
G1 X105.074 Y140.495 E13.93774
G1 X102.105 Y139.312 E13.98508
G1 X101.572 Y139.065 E13.99378
G1 X98.752 Y137.57 E14.04106
G1 X98.249 Y137.267 E14.04976
G1 X95.603 Y135.473 E14.09712
G1 X95.136 Y135.118 E14.10581
G1 X92.703 Y133.052 E14.15309
G1 X92.274 Y132.646 E14.16184
G1 X90.077 Y130.325 E14.20918
G1 X89.7 Y129.881 E14.21781
G1 X87.766 Y127.339 E14.26512
G1 X87.435 Y126.851 E14.27386
G1 X85.788 Y124.114 E14.32118
G1 X85.512 Y123.595 E14.32988
G1 X84.171 Y120.696 E14.3772
G1 X83.953 Y120.148 E14.38594
G1 X82.935 Y117.123 E14.43322
G1 X82.779 Y116.561 E14.44186
G1 X82.091 Y113.439 E14.48921
G1 X81.996 Y112.857 E14.49795
G1 X81.651 Y109.684 E14.54523
G1 X81.619 Y109.098 E14.55392
G1 X81.619 Y105.904 E14.60123
